X:2802503
T:Gr\/onl\aenderpolka
T:Polka from Greenland
S:Olivia und Lars beim Kulturnatten 2013 in NUUK, https://youtu.be/nkxMGGH71Ss,
S:March 4, 2013.
H:Translation: Olivia and Lars at the Kulturnatten 2013 in NUUK.
H:Played in D, then switched to A; transcribed separately in each key.
H:I haven't been able to find any more about the musicians although they're very good.
H:I have also transcribed a version by Thomas M\/oller, harmonica and Anders J. \/Orts
H:(guitar) in C. Each is somewhat different, with its own interesting variations.
H:I include an arrangement I put together that tries to keep the spirit of the
H:tune while combining many of the most enjoyable variations.
H:It's really a Greenland polka; I keep it with Scandinavian tunes for convenience.
N:From NH Country Dance (URL below), along with many New England, Canadian & Swedish
N:tunes, and resources for abc notation and New England traditional music and dance.
%
N: Note #1: To preserve formatting (font, spacing, etc.), use the
N: file header at the URL below; just follow accompanying instructions.
%
N: Note #2: This abc code is optimized for use with abcm2ps, which is used by
N: EasyABC and other abc apps. To abc2svg for display or printing look to see if there
N: is a file optimized for abc2svg. If not you may need to adjust the spacing in places.
%
Z:abc-transcription Peter Yarensky. I rely heavily on careful listening to the
Z:named sources aided by software to hear details. While not perfect, known
Z:substantial differences from other written sources receive careful attention.
Z:abc-copyright Peter Yarensky. You may reproduce this tune freely but
Z:please include the entire abc file including all the notes.
%%writefields HQSD
U:s = !slide!
U:t = !trill!
F:Tunes Home Page - https://fiddle-tunes.nhcountrydance.com/
F:abc Header & its Usage - https://fiddle-tunes.nhcountrydance.com/header-page/
M:2/4
L:1/16
R:Scandinavian Polka
G:Scandinavian Tunes ~ GanglÃ¥ts, Marches & Polkas
N: Tune Tags ~ Polka, Scandinavian
K:Amaj
%%textfont Palatino-Italic 14
%%text As played by Olivia & Lars in A
%%textfont Palatino-Roman 16
%%
e2 |\
"A" a2a2 g2f2      | "A" e4 c2e2      | "D" f4 "E7" g4  | "A" a4 e2e2     |\
"A" f2>e2 "D" d2c2 | "E7" B2ee e2cd   | "E7" e2>d2 c2d2 | "A" e4 e4       |
"A" a2a2 g2f2      | "A" e4 e2a2      | "D" f4 "E7" g4  | "A" a4 e2e2     |\
"A" f2>e2 "D" d2c2 | "E7" B2ee e4     | "E7" e2ed cdcB  | "A" A4 A4       ||
"A" e2ee e2ee      | "A" f2ee e2ed    | "A" c2ee e2ee   | "A" f2ee e2ce   |\
"A" a4 "E7" b4     | "A" {ab}c'4 a2a2 | "E7" b4 d'4     | "A" a4 a4       |
"A" c2ee e2ee      | "A" f2ee e2ed    | "A" c2ee e2e2   | "A" f2e2 e2e2   |\
"A" a4 "E7" b4     | "A" c'2>b2 a2a2  | "E7" b2z2 g2z2  | "A" a4 a2       |]
%%begintext
%% Final Ending: The last two measures can be played as written, or they could be played
%% as just accompaniment without melody.
%%
%% On the YouTube recording they switch from the key of D to A in the middle of the fourth
%% measure of the first A part. Here's what they played:
%%endtext
[K:D}]d2>d2 c2>B2 | A4>A4 | B4 c4 | d4 [K:A] e2e2 | f2e2 e2e2 | e2ee e2cd | e2>d2 c2d2 | e4 e4 |

